X:147
T:The Kylebrack rambler
R:Reel
P:APB Martin Hayes
S:Martin Hayes Concert- Santa Cruz 1999
Z:Transcription, chords:Mike Long
M:C|
L:1/8
K:A
"Em"EB,~B,2 EB,=GB,|"Em"EB, (3(B,A,B,) "D"DB,A,B,|\
"Em"EB, (3(B,A,B,) EB,EF|"E"GABG "A"(3(ABA) GA|\
"E"Beef edBd-|"D"dABd AFEF|
"E"EDB,A, B,EEF|[1 "A"GBAF "Em"~E2=GF:|[2 "A"GB"D"AF "E"~E2GA\
|:"E"BGAB GE~E2|(3(Bcd) ed Bded-|\
"D"dAFA (3(DEF) Ac|
"A"dfec dBAB|\
"E"eBgB eB~B2|"B"^dB~B2 FB{c}BG|\
"D"(3(ABA) FA DEFd-|[1 "A"dBAF EFGB:|[2 "A"dBAF EF=GF|]
